packages/tokens/icons/logOut/size32Px.svg

<svg viewBox="0 0 32 32" fill="none" xmlns="http://www.w3.org/2000/svg" width="1em" height="1em"><path d="M16.5 16L29 16M29 16L25.5 12.5M29 16L25.5 19.5" stroke="currentColor" stroke-linecap="round" stroke-linejoin="round"/><path d="M28.5 24.5V27.5C28.5 28.6046 27.6046 29.5 26.5 29.5L4.5 29.5C3.39543 29.5 2.5 28.6046 2.5 27.5L2.5 4.5C2.5 3.39543 3.39543 2.5 4.5 2.5L26.5 2.5C27.6046 2.5 28.5 3.39543 28.5 4.5V7.5" stroke="currentColor" stroke-linecap="round" stroke-linejoin="round"/></svg>

<svg xmlns="http://www.w3.org/2000/svg" fill="none" viewBox="0 0 32 32" width="1em" height="1em"><path stroke="currentColor" stroke-linecap="round" stroke-linejoin="round" d="M16.5 16H29m0 0-3.5-3.5M29 16l-3.5 3.5m3 5v3a2 2 0 0 1-2 2h-22a2 2 0 0 1-2-2v-23a2 2 0 0 1 2-2h22a2 2 0 0 1 2 2v3"/></svg>
